svgs/regular/elephant.svg

<svg xmlns="http://www.w3.org/2000/svg" viewBox="0 0 640 512"><!--! Font Awesome Pro 6.3.0 by @fontawesome - https://fontawesome.com License - https://fontawesome.com/license (Commercial License) Copyright 2023 Fonticons, Inc. --><path d="M299.8 48c-33 0-59.8 26.8-59.8 59.8V112c0 35.3 28.7 64 64 64h8c13.3 0 24 10.7 24 24s-10.7 24-24 24h-8c-61.9 0-112-50.1-112-112v-4.2c0-6.4 .6-12.7 1.6-18.9C127.5 111.6 80 174.2 80 248v19c0 15.5-1.5 31-4.6 46.3c-3.3 16.3-10.1 31.7-20.1 44.9L43.2 374.4c-8 10.6-23 12.8-33.6 4.8s-12.8-23-4.8-33.6l12.1-16.2c5.7-7.6 9.6-16.3 11.4-25.6C30.8 291.7 32 279.4 32 267V248C32 137.6 114.8 46.6 221.6 33.6C241.3 12.9 269.1 0 299.8 0c30.8 0 59 12.1 79.8 32H384c88.4 0 160 71.6 160 160V296c0 13.3-10.7 24-24 24s-24-10.7-24-24V192c0-52.6-36.3-96.8-85.3-108.8c2.1 7.3 3.5 14.9 4.2 22.7l1 12.1c1.1 13.2-8.7 24.8-21.9 25.9s-24.8-8.7-25.9-21.9l-1-12.1c-2.9-35-32.1-61.9-67.2-61.9zM528 381v18.7c0 17.8 14.5 32.3 32.3 32.3c15.8 0 29.3-11.4 31.9-27l.2-1c2.2-13.1 14.5-21.9 27.6-19.7s21.9 14.5 19.7 27.6l-.2 1c-6.5 38.7-40 67.1-79.2 67.1C516 480 480 444 480 399.7V380.8c-24-4.1-45.9-13.9-64-28.1V464c0 26.5-21.5 48-48 48H320c-26.5 0-48-21.5-48-48V411.7c-21.2 2.8-42.8 2.8-64 0V464c0 26.5-21.5 48-48 48H112c-26.5 0-48-21.5-48-48V392c0-13.3 10.7-24 24-24s24 10.7 24 24v72h48V384c0-7 3-13.6 8.3-18.1s12.2-6.6 19.1-5.6l24.3 3.5c18.8 2.7 37.8 2.7 56.6 0l24.3-3.5c6.9-1 13.9 1.1 19.1 5.6S320 377 320 384v80h48V312c0-13.3 10.7-24 24-24c11.2 0 20.6 7.6 23.2 18c18.7 26.7 51.6 44.9 89.5 44.9c30.1 0 57.1-11.4 76.3-29.6c6.4-6.1 16.5-5.8 22.6 .6s5.8 16.5-.6 22.6c-19.9 18.9-46 31.9-75 36.5zM432 192a16 16 0 1 1 0 32 16 16 0 1 1 0-32z"/></svg>

<svg xmlns="http://www.w3.org/2000/svg" viewBox="0 0 640 512"><!--! Font Awesome Pro 6.2.0 by @fontawesome - https://fontawesome.com License - https://fontawesome.com/license (Commercial License) Copyright 2022 Fonticons, Inc. --><path d="M299.8 47.1C266.8 47.1 240 74.79 240 107.8V111.1C240 147.3 268.7 175.1 304 175.1H312C325.3 175.1 336 186.7 336 199.1C336 213.3 325.3 223.1 312 223.1H304C242.1 223.1 192 173.9 192 111.1V107.8C192 101.4 192.6 95.11 193.6 88.99C127.5 111.6 80 174.2 80 248V267C80 282.5 78.47 298.1 75.42 313.3C72.16 329.6 65.29 344.9 55.32 358.2L43.2 374.4C35.25 385 20.21 387.2 9.601 379.2C-1.002 371.2-3.152 356.2 4.801 345.6L16.92 329.4C22.59 321.9 26.5 313.1 28.35 303.9C30.78 291.7 32 279.4 32 267V248C32 137.6 114.8 46.6 221.6 33.59C241.3 12.9 269.1 0 299.8 0C330.7 0 358.8 12.12 379.6 32H384C472.4 32 544 103.6 544 192V296C544 309.3 533.3 320 520 320C506.7 320 496 309.3 496 296V192C496 139.4 459.7 95.19 410.7 83.21C412.8 90.48 414.3 98.06 414.9 105.9L415.9 118C417 131.2 407.2 142.8 393.1 143.9C380.8 145 369.2 135.2 368.1 121.1L367.1 109.9C364.2 74.9 334.9 48 299.8 48L299.8 47.1zM528 399.7C528 417.5 542.5 432 560.3 432C576.1 432 589.6 420.6 592.2 405L592.3 404.1C594.5 390.1 606.9 382.1 619.9 384.3C633 386.5 641.9 398.9 639.7 411.9L639.5 412.9C633.1 451.6 599.6 480 560.3 480C515.1 480 480 444 480 399.7V380.8C455.1 376.7 434.1 366.9 416 352.7V464C416 490.5 394.5 512 368 512H320C293.5 512 272 490.5 272 464V411.7C250.8 414.4 229.2 414.4 208 411.7V464C208 490.5 186.5 512 160 512H112C85.49 512 64 490.5 64 464V392C64 378.7 74.75 368 88 368C101.3 368 112 378.7 112 392V464H160V384C160 377 163 370.4 168.3 365.9C173.5 361.3 180.5 359.3 187.4 360.2L211.7 363.7C230.5 366.4 249.5 366.4 268.3 363.7L292.6 360.2C299.5 359.3 306.5 361.3 311.7 365.9C316.1 370.4 320 377 320 384V464H368V311.1C368 298.7 378.7 287.1 392 287.1C403.2 287.1 412.6 295.6 415.2 305.1C433.1 332.7 466.8 350.9 504.7 350.9C534.8 350.9 561.8 339.4 581 321.3C587.4 315.2 597.6 315.5 603.6 321.9C609.7 328.3 609.4 338.4 602.1 344.5C583 363.4 557 376.4 528 381L528 399.7zM416 207.1C416 199.2 423.2 191.1 432 191.1C440.8 191.1 448 199.2 448 207.1C448 216.8 440.8 223.1 432 223.1C423.2 223.1 416 216.8 416 207.1z"/></svg>
